X:1
T: Captain Kelly's Reel
C:
R:Reel
Q: 232
K:G
M:4/4
L:1/8
|:D2|GB AF G2 ge|dB Ac BE E2|GB AF G2 ge|dB Ac G2 G2|
GB AF G2 ge|dB Ac BE E2|G2 ef gf ge|dB AB G2:|
|:d2|g2 bg ag bg|d2 fd ad fd|g2 bg ag bg|dg fa g2 d2|
g2 bg ag bg|((3ddd) fd ad fd|ga fg ef df|eg fa ge dB:|
